www/assets/icons/visibility_off.svg

<svg width="24" height="24" viewBox="0 0 24 24" xmlns="http://www.w3.org/2000/svg" fill='currentColor'><path d="M12.005 6.5C14.765 6.5 17.005 8.74 17.005 11.5C17.005 12.15 16.875 12.76 16.645 13.33L19.565 16.25C21.075 14.99 22.265 13.36 22.995 11.5C21.265 7.11 16.995 4 11.995 4C10.595 4 9.255 4.25 8.01501 4.7L10.175 6.86C10.745 6.63 11.355 6.5 12.005 6.5ZM2.005 3.77L4.745 6.51C3.085 7.8 1.785 9.52 1.005 11.5C2.735 15.89 7.005 19 12.005 19C13.555 19 15.035 18.7 16.385 18.16L16.805 18.58L19.735 21.5L21.005 20.23L3.275 2.5L2.005 3.77ZM7.53501 9.3L9.085 10.85C9.035 11.06 9.005 11.28 9.005 11.5C9.005 13.16 10.345 14.5 12.005 14.5C12.225 14.5 12.445 14.47 12.655 14.42L14.205 15.97C13.535 16.3 12.795 16.5 12.005 16.5C9.245 16.5 7.005 14.26 7.005 11.5C7.005 10.71 7.20501 9.97 7.53501 9.3ZM11.845 8.52L14.995 11.67L15.015 11.51C15.015 9.85 13.675 8.51 12.015 8.51L11.845 8.52Z"/></svg>

<svg xmlns="http://www.w3.org/2000/svg" width="24" height="24" viewBox="0 0 24 24" fill='currentColor'><path d="M12.005 6.5c2.76 0 5 2.24 5 5 0 .65-.13 1.26-.36 1.83l2.92 2.92c1.51-1.26 2.7-2.89 3.43-4.75-1.73-4.39-6-7.5-11-7.5-1.4 0-2.74.25-3.98.7l2.16 2.16c.57-.23 1.18-.36 1.83-.36m-10-2.73 2.74 2.74a11.8 11.8 0 0 0-3.74 4.99c1.73 4.39 6 7.5 11 7.5 1.55 0 3.03-.3 4.38-.84l.42.42 2.93 2.92 1.27-1.27L3.275 2.5zm5.53 5.53 1.55 1.55c-.05.21-.08.43-.08.65 0 1.66 1.34 3 3 3 .22 0 .44-.03.65-.08l1.55 1.55c-.67.33-1.41.53-2.2.53-2.76 0-5-2.24-5-5 0-.79.2-1.53.53-2.2m4.31-.78 3.15 3.15.02-.16c0-1.66-1.34-3-3-3z"/></svg>
